polaris-icons/icons/new-icons/BlockMinor.svg

<svg width="20" height="20" viewBox="0 0 20 20" fill="none" xmlns="http://www.w3.org/2000/svg">
<path d="M5 6.25C5 5.55964 5.55964 5 6.25 5H8.25C8.66421 5 9 4.66421 9 4.25C9 3.83579 8.66421 3.5 8.25 3.5H6.25C4.73122 3.5 3.5 4.73122 3.5 6.25V8.25C3.5 8.66421 3.83579 9 4.25 9C4.66421 9 5 8.66421 5 8.25V6.25Z" fill="#4A4A4A"/>
<path d="M13.75 5C14.4404 5 15 5.55964 15 6.25V8.25C15 8.66421 15.3358 9 15.75 9C16.1642 9 16.5 8.66421 16.5 8.25V6.25C16.5 4.73122 15.2688 3.5 13.75 3.5H11.75C11.3358 3.5 11 3.83579 11 4.25C11 4.66421 11.3358 5 11.75 5L13.75 5Z" fill="#4A4A4A"/>
<path d="M13.75 15C14.4404 15 15 14.4404 15 13.75V11.75C15 11.3358 15.3358 11 15.75 11C16.1642 11 16.5 11.3358 16.5 11.75V13.75C16.5 15.2688 15.2688 16.5 13.75 16.5H11.75C11.3358 16.5 11 16.1642 11 15.75C11 15.3358 11.3358 15 11.75 15H13.75Z" fill="#4A4A4A"/>
<path d="M6.25 15C5.55964 15 5 14.4404 5 13.75L5 11.75C5 11.3358 4.66421 11 4.25 11C3.83579 11 3.5 11.3358 3.5 11.75V13.75C3.5 15.2688 4.73122 16.5 6.25 16.5L8.25 16.5C8.66421 16.5 9 16.1642 9 15.75C9 15.3358 8.66421 15 8.25 15L6.25 15Z" fill="#4A4A4A"/>
</svg>

<svg viewBox="0 0 20 20" xmlns="http://www.w3.org/2000/svg"><path d="M5 6.25c0-.69.56-1.25 1.25-1.25h2a.75.75 0 0 0 0-1.5h-2a2.75 2.75 0 0 0-2.75 2.75v2a.75.75 0 0 0 1.5 0v-2Z" fill="#5C5F62"/><path d="M13.75 5c.69 0 1.25.56 1.25 1.25v2a.75.75 0 0 0 1.5 0v-2a2.75 2.75 0 0 0-2.75-2.75h-2a.75.75 0 0 0 0 1.5h2Z" fill="#5C5F62"/><path d="M13.75 15c.69 0 1.25-.56 1.25-1.25v-2a.75.75 0 0 1 1.5 0v2a2.75 2.75 0 0 1-2.75 2.75h-2a.75.75 0 0 1 0-1.5h2Z" fill="#5C5F62"/><path d="M6.25 15c-.69 0-1.25-.56-1.25-1.25v-2a.75.75 0 0 0-1.5 0v2a2.75 2.75 0 0 0 2.75 2.75h2a.75.75 0 0 0 0-1.5h-2Z" fill="#5C5F62"/></svg>
